icons/square/48/the-final-station.svg

<svg version="1.1" viewBox="0 0 48 48" xmlns="http://www.w3.org/2000/svg">
 <defs>
  <linearGradient id="bg" x2="0" y1="1" y2="47" gradientUnits="userSpaceOnUse">
   <stop stop-color="#3d3d3d" offset="0"/>
   <stop stop-color="#333" offset="1"/>
  </linearGradient>
 </defs>
 <path d="m1 43v0.25c0 2.216 1.784 4 4 4h38c2.216 0 4-1.784 4-4v-0.25c0 2.216-1.784 4-4 4h-38c-2.216 0-4-1.784-4-4zm0 0.5v0.5c0 2.216 1.784 4 4 4h38c2.216 0 4-1.784 4-4v-0.5c0 2.216-1.784 4-4 4h-38c-2.216 0-4-1.784-4-4z" opacity=".02"/>
 <path d="m1 43.25v0.25c0 2.216 1.784 4 4 4h38c2.216 0 4-1.784 4-4v-0.25c0 2.216-1.784 4-4 4h-38c-2.216 0-4-1.784-4-4z" opacity=".05"/>
 <path d="m1 43v0.25c0 2.216 1.784 4 4 4h38c2.216 0 4-1.784 4-4v-0.25c0 2.216-1.784 4-4 4h-38c-2.216 0-4-1.784-4-4z" opacity=".1"/>
 <rect x="1" y="1" width="46" height="46" rx="4" fill="url(#bg)"/>
 <path d="m1 39v4c0 2.216 1.784 4 4 4h38c2.216 0 4-1.784 4-4v-4c0 2.216-1.784 4-4 4h-38c-2.216 0-4-1.784-4-4z" opacity=".1"/>
 <path d="m24 10a9 9 0 0 0-5.1484 16.371l-3.8516 9.6289 9 3 9-3-3.8496-9.625a9 9 0 0 0-5.1504-16.375zm-1 10a2 1 0 0 0-2-1h-1a2 2 0 0 0 0 4 3 2 0 0 0 3-2zm2 0a2 1 0 0 1 2-1h1a2 2 0 0 1 0 4 3 2 0 0 1-3-2zm0 3a1.055 1.055 0 0 0-2 0l-1 3 2 0.5 2-0.5zm-5 4-3 8 2.5 0.71429 1.5-8.4643zm2 0.5-1.5 8.5 2.5 0.71429v-8.9643zm4 0 1.5 8.5-2.5 0.71429v-8.9643zm2-0.5 3 8-2.5 0.71429-1.5-8.4643z" fill-rule="evenodd" opacity=".1"/>
 <path transform="translate(0 -1)" d="m24 10a9 9 0 0 0-5.1484 16.371l-3.8516 9.6289 9 3 9-3-3.8496-9.625a9 9 0 0 0-5.1504-16.375zm-1 10a2 1 0 0 0-2-1h-1a2 2 0 0 0 0 4 3 2 0 0 0 3-2zm2 0a2 1 0 0 1 2-1h1a2 2 0 0 1 0 4 3 2 0 0 1-3-2zm0 3a1.055 1.055 0 0 0-2 0l-1 3 2 0.5 2-0.5zm-5 4-3 8 2.5 0.71429 1.5-8.4643zm2 0.5-1.5 8.5 2.5 0.71429v-8.9643zm4 0 1.5 8.5-2.5 0.71429v-8.9643zm2-0.5 3 8-2.5 0.71429-1.5-8.4643z" fill="#eee" fill-rule="evenodd"/>
</svg>

<svg xmlns="http://www.w3.org/2000/svg" version="1.1" viewBox="0 0 48 48">
	<defs>
		<linearGradient id="bg" gradientUnits="userSpaceOnUse" x1="0" x2="0" y1="1" y2="47">
			<stop offset="0" stop-color="#3d3d3d"/>
			<stop offset="1" stop-color="#333333"/>
		</linearGradient>
	</defs>
	<path opacity=".02" d="m1 43v0.25c0 2.216 1.784 4 4 4h38c2.216 0 4-1.784 4-4v-0.25c0 2.216-1.784 4-4 4h-38c-2.216 0-4-1.784-4-4zm0 0.5v0.5c0 2.216 1.784 4 4 4h38c2.216 0 4-1.784 4-4v-0.5c0 2.216-1.784 4-4 4h-38c-2.216 0-4-1.784-4-4z"/>
	<path opacity=".05" d="m1 43.25v0.25c0 2.216 1.784 4 4 4h38c2.216 0 4-1.784 4-4v-0.25c0 2.216-1.784 4-4 4h-38c-2.216 0-4-1.784-4-4z"/>
	<path opacity=".1" d="m1 43v0.25c0 2.216 1.784 4 4 4h38c2.216 0 4-1.784 4-4v-0.25c0 2.216-1.784 4-4 4h-38c-2.216 0-4-1.784-4-4z"/>
	<rect fill="url(#bg)" rx="4" height="46" width="46" y="1" x="1"/>
	<path opacity=".1" d="m1 39v4c0 2.216 1.784 4 4 4h38c2.216 0 4-1.784 4-4v-4c0 2.216-1.784 4-4 4h-38c-2.216 0-4-1.784-4-4z"/>
	<path d="M 24 10 A 9 9 0 0 0 18.851562 26.371094 L 15 36 L 24 39 L 33 36 L 29.150391 26.375 A 9 9 0 0 0 24 10 z M 23,20 a 2,1,0,0,0,-2,-1 h -1 a 2,2,0,0,0,0,4 3,2,0,0,0,3,-2 z M 25,20 a 2,1,0,0,1,2,-1 h 1 a 2,2,0,0,1,0,4 3,2,0,0,1,-3,-2 z M 25,23 A 1.055,1.055,0,0,0,23,23 L 22,26 24,26.5 26,26 Z M 20,27 17,35 19.5,35.714285714285715 21,27.25 Z M 22,27.5 20.5,36.0 23,36.714285714285715 23,27.75 Z M 26,27.5 27.5,36.0 25,36.714285714285715 25,27.75 Z M 28,27 31,35 28.5,35.714285714285715 27,27.25 Z" fill-rule="evenodd" opacity=".1"/>
	<path d="M 24 10 A 9 9 0 0 0 18.851562 26.371094 L 15 36 L 24 39 L 33 36 L 29.150391 26.375 A 9 9 0 0 0 24 10 z M 23,20 a 2,1,0,0,0,-2,-1 h -1 a 2,2,0,0,0,0,4 3,2,0,0,0,3,-2 z M 25,20 a 2,1,0,0,1,2,-1 h 1 a 2,2,0,0,1,0,4 3,2,0,0,1,-3,-2 z M 25,23 A 1.055,1.055,0,0,0,23,23 L 22,26 24,26.5 26,26 Z M 20,27 17,35 19.5,35.714285714285715 21,27.25 Z M 22,27.5 20.5,36.0 23,36.714285714285715 23,27.75 Z M 26,27.5 27.5,36.0 25,36.714285714285715 25,27.75 Z M 28,27 31,35 28.5,35.714285714285715 27,27.25 Z" fill-rule="evenodd" fill="#eee" transform="translate(0 -1)"/>
</svg>
